X:305
T: Mike Coen's
S: Jack & Charlie Coen: "The Branch Line"
Z: B.Black
M: 2/4
L: 1/8
R: polka
K: Edor
E/F/ | GE BE | GE B>A | FD AD | F/E/D/F/ AB/A/ |
GE BE | GB d2 | ed BA |1 GE E2 :|2 GE E>F ||
G2 BA | G2 BA | F2 AF | ED DE/F/ |
GB BA | G/A/B/c/ d2 | ed BA | GE E2 :|
